assets/shop-tab/Asset/Tata Cliq.svg

<svg width="94" height="53" viewBox="0 0 94 53" fill="none" xmlns="http://www.w3.org/2000/svg">
<mask id="path-1-outside-1_634_1296" maskUnits="userSpaceOnUse" x="-0.5" y="-0.5" width="95" height="54" fill="black">
<rect fill="white" x="-0.5" y="-0.5" width="95" height="54"/>
<path fill-rule="evenodd" clip-rule="evenodd" d="M0.5 8.5C0.5 4.08172 4.08172 0.5 8.5 0.5H85.5C89.9183 0.5 93.5 4.08172 93.5 8.5V21.6C91.2178 22.0633 89.5 24.081 89.5 26.5C89.5 28.919 91.2178 30.9367 93.5 31.4V44.5C93.5 48.9183 89.9183 52.5 85.5 52.5H8.5C4.08172 52.5 0.5 48.9183 0.5 44.5V31.4C2.78224 30.9367 4.5 28.919 4.5 26.5C4.5 24.081 2.78224 22.0633 0.5 21.6V8.5Z"/>
</mask>
<path fill-rule="evenodd" clip-rule="evenodd" d="M0.5 8.5C0.5 4.08172 4.08172 0.5 8.5 0.5H85.5C89.9183 0.5 93.5 4.08172 93.5 8.5V21.6C91.2178 22.0633 89.5 24.081 89.5 26.5C89.5 28.919 91.2178 30.9367 93.5 31.4V44.5C93.5 48.9183 89.9183 52.5 85.5 52.5H8.5C4.08172 52.5 0.5 48.9183 0.5 44.5V31.4C2.78224 30.9367 4.5 28.919 4.5 26.5C4.5 24.081 2.78224 22.0633 0.5 21.6V8.5Z" fill="white"/>
<path d="M93.5 21.6L93.5995 22.09L94 22.0087V21.6H93.5ZM93.5 31.4H94V30.9913L93.5995 30.91L93.5 31.4ZM0.5 31.4L0.400534 30.91L0 30.9913V31.4H0.5ZM0.5 21.6H0V22.0087L0.400534 22.09L0.5 21.6ZM8.5 0.5V0C3.80558 0 0 3.80558 0 8.5H0.5H1C1 4.35786 4.35786 1 8.5 1V0.5ZM85.5 0.5V0H8.5V0.5V1H85.5V0.5ZM93.5 8.5H94C94 3.80558 90.1944 0 85.5 0V0.5V1C89.6421 1 93 4.35786 93 8.5H93.5ZM93.5 21.6H94V8.5H93.5H93V21.6H93.5ZM89.5 26.5H90C90 24.3235 91.5457 22.5069 93.5995 22.09L93.5 21.6L93.4005 21.11C90.8899 21.6196 89 23.8386 89 26.5H89.5ZM93.5 31.4L93.5995 30.91C91.5457 30.4931 90 28.6765 90 26.5H89.5H89C89 29.1614 90.8899 31.3804 93.4005 31.89L93.5 31.4ZM93.5 44.5H94V31.4H93.5H93V44.5H93.5ZM85.5 52.5V53C90.1944 53 94 49.1944 94 44.5H93.5H93C93 48.6421 89.6421 52 85.5 52V52.5ZM8.5 52.5V53H85.5V52.5V52H8.5V52.5ZM0.5 44.5H0C0 49.1944 3.80558 53 8.5 53V52.5V52C4.35786 52 1 48.6421 1 44.5H0.5ZM0.5 31.4H0V44.5H0.5H1V31.4H0.5ZM4.5 26.5H4C4 28.6765 2.45434 30.4931 0.400534 30.91L0.5 31.4L0.599466 31.89C3.11014 31.3804 5 29.1614 5 26.5H4.5ZM0.5 21.6L0.400534 22.09C2.45434 22.5069 4 24.3235 4 26.5H4.5H5C5 23.8386 3.11014 21.6196 0.599466 21.11L0.5 21.6ZM0.5 8.5H0V21.6H0.5H1V8.5H0.5Z" fill="#D9D9D9" mask="url(#path-1-outside-1_634_1296)"/>
<path d="M50.6296 11.2146H54.2615V12.3394H53.1852V15.0943H51.7109V12.3394H50.63V11.2146H50.6296Z" fill="black"/>
<path d="M56.3422 12.7476L55.4987 15.0943H53.9967L55.509 11.2146H57.1741L58.6885 15.0943H57.1947L56.3422 12.7476V12.7476Z" fill="black"/>
<path d="M48.5434 12.7476L47.6999 15.0943H46.198L47.7103 11.2146H49.3753L50.8897 15.0943H49.396L48.5434 12.7476V12.7476Z" fill="black"/>
<path d="M38.0448 11.3163H29.0354C27.5562 11.3163 26.3571 12.5055 26.3571 13.9725V22.9079C26.3571 24.3749 27.5562 25.5641 29.0354 25.5641H38.0448C39.5239 25.5641 40.723 24.3749 40.723 22.9079V13.9725C40.723 12.5055 39.5239 11.3163 38.0448 11.3163Z" fill="#AB1E40"/>
<path d="M65.9129 21.3162C65.9348 19.8376 64.7099 18.5887 63.2104 18.5604C61.6754 18.5314 60.3707 19.779 60.3315 21.3129C60.2952 22.7489 61.5915 24.0522 63.077 24.0719C64.6545 24.0928 65.8898 22.8918 65.9129 21.3157M66.4988 23.723C66.8076 24.0227 67.1164 24.3245 67.4285 24.623C67.6312 24.8175 67.6878 25.0526 67.6077 25.3122C67.5243 25.5844 67.3224 25.7388 67.0404 25.7794C66.8076 25.8129 66.616 25.7167 66.4542 25.5591C66.1957 25.3068 65.9356 25.0566 65.6871 24.7954C65.5851 24.6877 65.5178 24.6701 65.3812 24.7557C64.6665 25.2032 63.8821 25.4178 63.0345 25.4088C61.0912 25.3879 59.3753 23.9007 59.0508 21.9951C58.6557 19.675 60.3695 17.6269 62.4874 17.287C64.7173 16.9287 66.8526 18.4339 67.1994 20.6409C67.3637 21.6875 67.1713 22.6674 66.5892 23.5645C66.5619 23.6063 66.5392 23.6509 66.4988 23.7226" fill="black"/>
<path d="M44.1907 21.3771C44.2113 21.9139 44.2625 22.4401 44.4318 22.9511C44.694 23.7438 45.2666 24.1549 46.0808 24.2368C46.4094 24.27 46.7479 24.2548 47.0778 24.2221C47.6207 24.1676 48.0406 23.8704 48.4299 23.5076C48.5674 23.379 48.766 23.2709 48.9497 23.2447C49.1925 23.2103 49.3894 23.3573 49.5029 23.5854C49.6218 23.8245 49.5826 24.0432 49.4167 24.2446C48.9749 24.7818 48.3985 25.109 47.7338 25.2904C46.7797 25.5512 45.8289 25.5307 44.8946 25.206C44.059 24.9153 43.474 24.34 43.1796 23.5207C42.6726 22.108 42.6549 20.6728 43.178 19.263C43.6358 18.0293 44.6093 17.4421 45.8917 17.2931C46.5787 17.2132 47.2508 17.2558 47.9072 17.4712C48.463 17.6534 48.9328 17.9662 49.292 18.4298C49.4274 18.605 49.5269 18.7966 49.4728 19.028C49.363 19.4993 48.7945 19.6635 48.427 19.3306C48.2512 19.1709 48.0881 18.9932 47.8961 18.8552C47.1914 18.3483 45.9755 18.3122 45.2356 18.7672C44.6675 19.1164 44.4256 19.6704 44.3129 20.2875C44.2477 20.6462 44.2299 21.0135 44.1907 21.3767" fill="black"/>
<path d="M52.053 24.0582H52.3424C53.1834 24.0582 54.0244 24.0553 54.8654 24.059C55.1845 24.0602 55.3992 24.2076 55.4876 24.4676C55.5743 24.7199 55.5127 24.9864 55.2985 25.1469C55.2014 25.2202 55.0648 25.2796 54.9459 25.2808C53.7354 25.2915 52.5249 25.296 51.3144 25.287C50.9399 25.2841 50.7054 25.0175 50.705 24.6404C50.7029 22.433 50.7029 20.2255 50.705 18.0185C50.705 17.6172 50.994 17.3306 51.3821 17.3339C51.7706 17.3372 52.0518 17.625 52.0518 18.0288C52.0534 19.9418 52.0526 21.854 52.0526 23.7666V24.0582H52.053Z" fill="black"/>
<path d="M57.8713 22.411C57.8713 23.1231 57.8746 23.8351 57.8701 24.5476C57.8668 25.0484 57.5381 25.3465 57.072 25.283C56.8251 25.2494 56.5935 25.0455 56.5415 24.8056C56.5217 24.7155 56.5118 24.6205 56.5118 24.5275C56.5101 23.1325 56.5105 21.737 56.5105 20.3415C56.5105 20.0652 56.5626 19.8142 56.8218 19.65C57.2405 19.3854 57.7747 19.6176 57.8544 20.1028C57.8684 20.1876 57.8726 20.2748 57.8726 20.3608C57.8742 21.0442 57.8734 21.7276 57.8734 22.4106H57.8713V22.411Z" fill="black"/>
<path d="M58.0721 17.6502C58.3372 17.9131 58.3372 18.3405 58.0721 18.603C57.807 18.8663 57.376 18.8663 57.1114 18.603L56.2782 17.7771C56.0132 17.5142 56.0132 17.0872 56.2782 16.8239C56.5437 16.561 56.9743 16.561 57.239 16.8239L58.0721 17.6502Z" fill="#AB1E40"/>
<path d="M36.7198 18.487C36.7433 16.8823 35.4143 15.5273 33.7873 15.4966C32.1218 15.4651 30.7057 16.8188 30.6636 18.4833C30.6239 20.0417 32.031 21.456 33.6428 21.4773C35.3545 21.4998 36.6954 20.1969 36.7202 18.4866M37.356 21.0986C37.6913 21.4237 38.0261 21.7512 38.365 22.0755C38.5851 22.2868 38.6462 22.5415 38.5595 22.8236C38.4687 23.1189 38.2499 23.2868 37.9439 23.3306C37.6913 23.367 37.4832 23.2626 37.3077 23.0918C37.0274 22.8183 36.745 22.5468 36.4754 22.2631C36.3647 22.1464 36.2921 22.1271 36.1434 22.2201C35.3677 22.7057 34.5168 22.9383 33.5969 22.9289C31.4881 22.9064 29.6261 21.2922 29.2739 19.2248C28.8449 16.7074 30.7049 14.4848 33.0028 14.1159C35.4226 13.7273 37.7396 15.3603 38.1157 17.7553C38.294 18.8911 38.0851 19.9545 37.4534 20.9278C37.4237 20.9729 37.3994 21.0216 37.3552 21.0994" fill="white"/>
<path d="M42.8393 11.2146H46.4712V12.3394H45.3949V15.0943H43.9206V12.3394H42.8397V11.2146H42.8393Z" fill="black"/>
<path d="M10.5 36.5C10.5 33.1863 13.1863 30.5 16.5 30.5H77.5C80.8137 30.5 83.5 33.1863 83.5 36.5V52.5H10.5V36.5Z" fill="url(#paint0_linear_634_1296)"/>
<path d="M24.5426 45.5V44.392L27.1314 41.995C27.3516 41.782 27.5362 41.5902 27.6854 41.4197C27.8369 41.2493 27.9517 41.0824 28.0298 40.919C28.108 40.7533 28.147 40.5746 28.147 40.3828C28.147 40.1697 28.0985 39.9863 28.0014 39.8324C27.9044 39.6761 27.7718 39.5566 27.6037 39.4737C27.4356 39.3885 27.245 39.3459 27.032 39.3459C26.8094 39.3459 26.6153 39.3909 26.4496 39.4808C26.2839 39.5708 26.156 39.6998 26.0661 39.8679C25.9761 40.036 25.9311 40.236 25.9311 40.468H24.4716C24.4716 39.9922 24.5793 39.5791 24.7947 39.2287C25.0102 38.8783 25.312 38.6072 25.7003 38.4155C26.0885 38.2237 26.536 38.1278 27.0426 38.1278C27.5634 38.1278 28.0168 38.2202 28.4027 38.4048C28.791 38.5871 29.0928 38.8404 29.3082 39.1648C29.5237 39.4891 29.6314 39.8608 29.6314 40.2798C29.6314 40.5545 29.5769 40.8255 29.468 41.093C29.3615 41.3606 29.1709 41.6577 28.8963 41.9844C28.6217 42.3087 28.2346 42.6982 27.7351 43.1527L26.6733 44.1932V44.2429H29.7273V45.5H24.5426ZM31.7399 45.5923C31.5055 45.5923 31.3043 45.5095 31.1362 45.3438C30.9705 45.1757 30.8876 44.9744 30.8876 44.7401C30.8876 44.508 30.9705 44.3092 31.1362 44.1435C31.3043 43.9777 31.5055 43.8949 31.7399 43.8949C31.9672 43.8949 32.166 43.9777 32.3365 44.1435C32.5069 44.3092 32.5922 44.508 32.5922 44.7401C32.5922 44.8963 32.5519 45.0395 32.4714 45.1697C32.3933 45.2976 32.2903 45.4006 32.1625 45.4787C32.0346 45.5545 31.8938 45.5923 31.7399 45.5923ZM36.4176 45.5994C35.9157 45.5994 35.4683 45.5071 35.0753 45.3224C34.6847 45.1378 34.3745 44.8833 34.1449 44.5589C33.9152 44.2346 33.7957 43.8629 33.7862 43.4439H35.2777C35.2943 43.7256 35.4126 43.9541 35.6328 44.1293C35.853 44.3045 36.1146 44.392 36.4176 44.392C36.6591 44.392 36.8722 44.3388 37.0568 44.2322C37.2438 44.1233 37.3894 43.973 37.4936 43.7812C37.6001 43.5871 37.6534 43.3646 37.6534 43.1136C37.6534 42.858 37.599 42.633 37.4901 42.4389C37.3835 42.2448 37.2356 42.0933 37.0462 41.9844C36.8568 41.8755 36.6402 41.8198 36.3963 41.8175C36.1832 41.8175 35.9761 41.8613 35.7749 41.9489C35.576 42.0365 35.4209 42.156 35.3097 42.3075L33.9425 42.0625L34.2869 38.2273H38.733V39.4844H35.5547L35.3665 41.3061H35.4091C35.5369 41.1262 35.7299 40.977 35.9879 40.8587C36.246 40.7403 36.5348 40.6811 36.8544 40.6811C37.2924 40.6811 37.683 40.7841 38.0263 40.9901C38.3696 41.196 38.6406 41.4789 38.8395 41.8388C39.0384 42.1963 39.1366 42.6082 39.1342 43.0746C39.1366 43.5646 39.023 44.0002 38.7933 44.3814C38.5661 44.7602 38.2476 45.0585 37.8381 45.2763C37.4309 45.4917 36.9574 45.5994 36.4176 45.5994ZM44.1875 44.1364V43.7528C44.1875 43.4616 44.2491 43.1941 44.3722 42.9503C44.4976 42.7041 44.6787 42.5076 44.9155 42.3608C45.1546 42.2116 45.4458 42.1371 45.7891 42.1371C46.1371 42.1371 46.4295 42.2105 46.6662 42.3572C46.9053 42.504 47.0852 42.7005 47.206 42.9467C47.3291 43.1906 47.3906 43.4593 47.3906 43.7528V44.1364C47.3906 44.4276 47.3291 44.6963 47.206 44.9425C47.0829 45.1863 46.9018 45.3816 46.6626 45.5284C46.4235 45.6776 46.1323 45.7521 45.7891 45.7521C45.4411 45.7521 45.1487 45.6776 44.9119 45.5284C44.6752 45.3816 44.4953 45.1863 44.3722 44.9425C44.2491 44.6963 44.1875 44.4276 44.1875 44.1364ZM45.2209 43.7528V44.1364C45.2209 44.3045 45.2611 44.4631 45.3416 44.6122C45.4245 44.7614 45.5736 44.8359 45.7891 44.8359C46.0045 44.8359 46.1513 44.7625 46.2294 44.6158C46.3099 44.469 46.3501 44.3092 46.3501 44.1364V43.7528C46.3501 43.58 46.3123 43.419 46.2365 43.2699C46.1607 43.1207 46.0116 43.0462 45.7891 43.0462C45.576 43.0462 45.428 43.1207 45.3452 43.2699C45.2623 43.419 45.2209 43.58 45.2209 43.7528ZM40.4553 39.9744V39.5909C40.4553 39.2973 40.518 39.0286 40.6435 38.7848C40.7689 38.5386 40.95 38.3421 41.1868 38.1953C41.4259 38.0485 41.7147 37.9751 42.0533 37.9751C42.4036 37.9751 42.6972 38.0485 42.9339 38.1953C43.1707 38.3421 43.3506 38.5386 43.4737 38.7848C43.5968 39.0286 43.6584 39.2973 43.6584 39.5909V39.9744C43.6584 40.268 43.5956 40.5367 43.4702 40.7805C43.3471 41.0244 43.166 41.2197 42.9268 41.3665C42.6901 41.5109 42.3989 41.5831 42.0533 41.5831C41.7076 41.5831 41.4152 41.5097 41.1761 41.3629C40.9394 41.2138 40.7595 41.0185 40.6364 40.777C40.5156 40.5331 40.4553 40.2656 40.4553 39.9744ZM41.4957 39.5909V39.9744C41.4957 40.1473 41.536 40.3071 41.6165 40.4538C41.6993 40.6006 41.8449 40.674 42.0533 40.674C42.2711 40.674 42.419 40.6006 42.4972 40.4538C42.5777 40.3071 42.6179 40.1473 42.6179 39.9744V39.5909C42.6179 39.4181 42.58 39.2571 42.5043 39.108C42.4285 38.9588 42.2782 38.8842 42.0533 38.8842C41.8426 38.8842 41.697 38.96 41.6165 39.1115C41.536 39.263 41.4957 39.4228 41.4957 39.5909ZM40.924 45.5L45.924 38.2273H46.8544L41.8544 45.5H40.924ZM57.8407 41.8636C57.8407 42.6567 57.6904 43.3314 57.3897 43.8878C57.0914 44.4441 56.6842 44.8691 56.1681 45.1626C55.6544 45.4538 55.0768 45.5994 54.4352 45.5994C53.7889 45.5994 53.2089 45.4527 52.6951 45.1591C52.1814 44.8655 51.7754 44.4406 51.4771 43.8842C51.1788 43.3279 51.0297 42.6544 51.0297 41.8636C51.0297 41.0705 51.1788 40.3958 51.4771 39.8395C51.7754 39.2831 52.1814 38.8594 52.6951 38.5682C53.2089 38.2746 53.7889 38.1278 54.4352 38.1278C55.0768 38.1278 55.6544 38.2746 56.1681 38.5682C56.6842 38.8594 57.0914 39.2831 57.3897 39.8395C57.6904 40.3958 57.8407 41.0705 57.8407 41.8636ZM56.2818 41.8636C56.2818 41.3499 56.2048 40.9167 56.051 40.5639C55.8994 40.2112 55.6852 39.9437 55.4082 39.7614C55.1312 39.5791 54.8069 39.4879 54.4352 39.4879C54.0635 39.4879 53.7392 39.5791 53.4622 39.7614C53.1852 39.9437 52.9698 40.2112 52.8159 40.5639C52.6644 40.9167 52.5886 41.3499 52.5886 41.8636C52.5886 42.3774 52.6644 42.8106 52.8159 43.1634C52.9698 43.5161 53.1852 43.7836 53.4622 43.9659C53.7392 44.1482 54.0635 44.2393 54.4352 44.2393C54.8069 44.2393 55.1312 44.1482 55.4082 43.9659C55.6852 43.7836 55.8994 43.5161 56.051 43.1634C56.2048 42.8106 56.2818 42.3774 56.2818 41.8636ZM58.9798 45.5V38.2273H63.7951V39.495H60.5174V41.228H63.4755V42.4957H60.5174V45.5H58.9798ZM64.8294 45.5V38.2273H69.6447V39.495H66.367V41.228H69.3251V42.4957H66.367V45.5H64.8294Z" fill="#4B5F7C"/>
<defs>
<linearGradient id="paint0_linear_634_1296" x1="47" y1="30.5" x2="47" y2="64.1111" gradientUnits="userSpaceOnUse">
<stop stop-color="#B8D3FA"/>
<stop offset="1" stop-color="#D9D9D9" stop-opacity="0"/>
<stop offset="1" stop-color="#B8D3FA" stop-opacity="0"/>
</linearGradient>
</defs>
</svg>

<svg xmlns="http://www.w3.org/2000/svg" width="94" height="53" fill="none" viewBox="0 0 94 53"><mask id="a" width="95" height="54" x="-.5" y="-.5" fill="#000" maskUnits="userSpaceOnUse"><path fill="#fff" d="M-.5-.5h95v54h-95z"/><path fill-rule="evenodd" d="M.5 8.5a8 8 0 0 1 8-8h77a8 8 0 0 1 8 8v13.1a5.002 5.002 0 0 0 0 9.8v13.1a8 8 0 0 1-8 8h-77a8 8 0 0 1-8-8V31.4a5.002 5.002 0 0 0 0-9.8z" clip-rule="evenodd"/></mask><path fill="#fff" fill-rule="evenodd" d="M.5 8.5a8 8 0 0 1 8-8h77a8 8 0 0 1 8 8v13.1a5.002 5.002 0 0 0 0 9.8v13.1a8 8 0 0 1-8 8h-77a8 8 0 0 1-8-8V31.4a5.002 5.002 0 0 0 0-9.8z" clip-rule="evenodd"/><path fill="#d9d9d9" d="m93.5 21.6.1.49.4-.081V21.6zm0 9.8h.5v-.409l-.4-.081zm-93 0-.1-.49-.4.081v.409zm0-9.8H0v.409l.4.081zM8.5.5V0A8.5 8.5 0 0 0 0 8.5h1A7.5 7.5 0 0 1 8.5 1zm77 0V0h-77v1h77zm8 8h.5A8.5 8.5 0 0 0 85.5 0v1A7.5 7.5 0 0 1 93 8.5zm0 13.1h.5V8.5h-1v13.1zm-4 4.9h.5a4.5 4.5 0 0 1 3.6-4.41l-.1-.49-.1-.49A5.5 5.5 0 0 0 89 26.5zm4 4.9.1-.49A4.5 4.5 0 0 1 90 26.5h-1c0 2.661 1.89 4.88 4.4 5.39zm0 13.1h.5V31.4h-1v13.1zm-8 8v.5a8.5 8.5 0 0 0 8.5-8.5h-1a7.5 7.5 0 0 1-7.5 7.5zm-77 0v.5h77v-1h-77zm-8-8H0A8.5 8.5 0 0 0 8.5 53v-1A7.5 7.5 0 0 1 1 44.5zm0-13.1H0v13.1h1V31.4zm4-4.9H4a4.5 4.5 0 0 1-3.6 4.41l.1.49.1.49A5.5 5.5 0 0 0 5 26.5zm-4-4.9-.1.49A4.5 4.5 0 0 1 4 26.5h1c0-2.661-1.89-4.88-4.4-5.39zm0-13.1H0v13.1h1V8.5z" mask="url(#a)"/><path fill="#000" d="M50.63 11.215h3.631v1.124h-1.076v2.755h-1.474V12.34H50.63zm5.712 1.533-.843 2.346h-1.502l1.512-3.88h1.665l1.514 3.88h-1.493zm-7.799 0-.843 2.346h-1.502l1.512-3.88h1.665l1.515 3.88h-1.494z"/><path fill="#ab1e40" d="M38.045 11.316h-9.01c-1.479 0-2.678 1.19-2.678 2.656v8.936c0 1.467 1.2 2.656 2.678 2.656h9.01c1.479 0 2.678-1.19 2.678-2.656v-8.936c0-1.466-1.2-2.656-2.678-2.656"/><path fill="#000" d="M65.913 21.316c.022-1.478-1.203-2.727-2.703-2.756-1.535-.029-2.84 1.219-2.879 2.753-.036 1.436 1.26 2.74 2.746 2.759 1.578.02 2.813-1.18 2.836-2.756m.586 2.407q.462.452.93.9a.64.64 0 0 1 .179.69c-.084.271-.286.426-.568.466-.232.034-.424-.062-.586-.22-.258-.252-.518-.502-.767-.764-.102-.107-.17-.125-.306-.04a4.25 4.25 0 0 1-2.346.654c-1.944-.021-3.66-1.508-3.984-3.414-.395-2.32 1.319-4.368 3.436-4.708 2.23-.358 4.366 1.147 4.712 3.354.165 1.047-.028 2.026-.61 2.924-.027.041-.05.086-.09.158M44.19 21.377c.021.537.073 1.063.242 1.574.262.793.835 1.204 1.649 1.286.328.033.667.018.997-.015.543-.054.963-.352 1.352-.714.137-.129.336-.237.52-.263.242-.035.44.112.553.34.119.24.08.458-.086.66-.442.537-1.019.864-1.683 1.045a4.7 4.7 0 0 1-2.84-.084c-.835-.29-1.42-.866-1.714-1.685-.507-1.413-.525-2.848-.002-4.258.458-1.234 1.431-1.82 2.714-1.97.687-.08 1.359-.037 2.015.178a2.8 2.8 0 0 1 1.385.959c.135.175.235.367.18.598-.109.471-.678.636-1.045.303-.176-.16-.339-.338-.53-.476-.706-.507-1.922-.543-2.661-.088-.569.35-.81.903-.923 1.52-.065.36-.083.727-.122 1.09m7.862 2.681h.29c.84 0 1.681-.003 2.522.001.32.001.534.149.623.409.086.252.025.518-.19.679a.65.65 0 0 1-.352.134c-1.21.01-2.421.015-3.632.006-.374-.003-.609-.27-.609-.647q-.003-3.31 0-6.622c0-.4.289-.687.677-.684s.67.291.67.695zm5.818-1.647c0 .712.004 1.424 0 2.137-.004.5-.333.799-.799.735a.65.65 0 0 1-.53-.477c-.02-.09-.03-.186-.03-.279q-.002-2.092-.002-4.186c0-.276.053-.527.312-.691a.67.67 0 0 1 1.032.453q.02.128.019.258v2.05z"/><path fill="#ab1e40" d="M58.072 17.65a.67.67 0 0 1 0 .953.683.683 0 0 1-.96 0l-.834-.826a.67.67 0 0 1 0-.953.684.684 0 0 1 .961 0z"/><path fill="#fff" d="M36.72 18.487c.023-1.605-1.306-2.96-2.933-2.99-1.665-.032-3.081 1.322-3.123 2.986-.04 1.559 1.367 2.973 2.979 2.994 1.712.023 3.052-1.28 3.077-2.99m.636 2.612q.502.488 1.009.977a.69.69 0 0 1 .194.748c-.09.295-.31.463-.615.507-.253.036-.46-.068-.636-.24-.28-.273-.563-.544-.833-.828-.11-.117-.183-.136-.332-.043a4.6 4.6 0 0 1-2.546.709c-2.109-.023-3.97-1.637-4.323-3.704-.43-2.518 1.43-4.74 3.729-5.11 2.42-.388 4.737 1.245 5.113 3.64.178 1.136-.03 2.2-.663 3.173-.03.045-.054.094-.098.171"/><path fill="#000" d="M42.84 11.215h3.631v1.124h-1.076v2.755H43.92V12.34h-1.08z"/><path fill="url(#b)" d="M10.5 36.5a6 6 0 0 1 6-6h61a6 6 0 0 1 6 6v16h-73z"/><path fill="#4b5f7c" d="M24.543 45.5v-1.108l2.588-2.397q.33-.32.554-.575.228-.256.345-.501a1.24 1.24 0 0 0 .117-.536 1 1 0 0 0-.146-.55.96.96 0 0 0-.397-.36 1.25 1.25 0 0 0-.572-.127q-.334 0-.582.135a.93.93 0 0 0-.384.387q-.135.252-.135.6h-1.46q0-.714.324-1.24.323-.525.905-.812t1.343-.288q.78 0 1.36.277.582.273.905.76.323.486.323 1.115 0 .411-.163.813-.16.402-.572.891-.411.487-1.16 1.169l-1.063 1.04v.05h3.054V45.5zm7.197.092a.83.83 0 0 1-.604-.248.83.83 0 0 1-.248-.604q0-.348.248-.596a.83.83 0 0 1 .604-.25q.34 0 .597.25.255.248.255.596 0 .234-.12.43a.9.9 0 0 1-.31.309.8.8 0 0 1-.422.113m4.678.007a3.1 3.1 0 0 1-1.343-.277q-.585-.276-.93-.763a1.96 1.96 0 0 1-.359-1.115h1.492q.024.423.355.685t.785.263q.361 0 .639-.16.28-.163.437-.45.16-.292.16-.668 0-.384-.164-.675a1.16 1.16 0 0 0-.444-.455 1.3 1.3 0 0 0-.65-.166q-.32 0-.621.13a1.1 1.1 0 0 0-.465.36l-1.367-.245.344-3.836h4.446v1.257h-3.178l-.188 1.822h.042q.191-.27.579-.447.387-.178.866-.178.657 0 1.172.31.516.308.813.848.3.536.295 1.236.004.735-.34 1.306a2.4 2.4 0 0 1-.956.895q-.61.324-1.42.323m7.77-1.463v-.383q0-.437.184-.803.189-.368.544-.59.358-.222.873-.223.522 0 .877.22.36.22.54.59.185.366.185.806v.383q0 .438-.185.806-.184.367-.543.586-.359.224-.874.224-.522 0-.877-.224a1.45 1.45 0 0 1-.54-.585 1.8 1.8 0 0 1-.184-.807m1.033-.383v.383q0 .252.12.476.126.224.448.224.323 0 .44-.22a1 1 0 0 0 .121-.48v-.383a1.05 1.05 0 0 0-.114-.483q-.112-.224-.447-.224-.32 0-.444.224a1 1 0 0 0-.124.483m-4.766-3.779v-.383q0-.44.189-.806.188-.37.543-.59.359-.22.866-.22.526 0 .88.22.357.22.54.59.185.366.185.806v.383q0 .441-.188.807-.184.365-.543.586-.355.216-.874.216-.518 0-.877-.22a1.5 1.5 0 0 1-.54-.586 1.8 1.8 0 0 1-.18-.803m1.04-.383v.383q0 .26.122.48.123.22.436.22.327 0 .444-.22a1 1 0 0 0 .12-.48v-.383q0-.26-.113-.483-.113-.224-.45-.224-.317 0-.437.227-.121.228-.121.48m-.571 5.909 5-7.273h.93l-5 7.273zm16.917-3.636q0 1.189-.451 2.024a3.13 3.13 0 0 1-1.222 1.275 3.45 3.45 0 0 1-1.733.436 3.44 3.44 0 0 1-1.74-.44 3.14 3.14 0 0 1-1.218-1.275q-.447-.834-.447-2.02 0-1.19.447-2.024a3.1 3.1 0 0 1 1.218-1.272 3.44 3.44 0 0 1 1.74-.44q.963 0 1.733.44.774.437 1.222 1.272.45.833.45 2.024m-1.56 0q0-.77-.23-1.3-.228-.529-.643-.803a1.73 1.73 0 0 0-.973-.273 1.73 1.73 0 0 0-.973.273q-.415.274-.646.803-.227.53-.227 1.3t.227 1.3q.231.529.646.802t.973.273.973-.273.643-.803q.23-.528.23-1.3M58.98 45.5v-7.273h4.815v1.268h-3.278v1.733h2.958v1.268h-2.958V45.5zm5.85 0v-7.273h4.815v1.268h-3.278v1.733h2.958v1.268h-2.958V45.5z"/><defs><linearGradient id="b" x1="47" x2="47" y1="30.5" y2="64.111" gradientUnits="userSpaceOnUse"><stop stop-color="#b8d3fa"/><stop offset="1" stop-color="#d9d9d9" stop-opacity="0"/><stop offset="1" stop-color="#b8d3fa" stop-opacity="0"/></linearGradient></defs></svg>
